jsapp/svg-icons/graph-settings.svg

<svg height="40" viewBox="0 0 40 40" width="40" xmlns="http://www.w3.org/2000/svg"><path d="m10.9962121 13.999h1.9981061v8h-1.9981061zm6.9933712 2h1.9981061v6h-1.9981061zm8.9914773 2.0010219c-.6900507.0015991-1.3595778.0905642-1.9981061.2564204v-8.2564423h1.9981061zm-7.7290256 5.9999781h-12.252035v-2h1.99810606v-9.001c0-.552.44757576-1 .99905303-1h3.99621211c.5514773 0 .999053.448.999053 1v9.001h.9990531v-7.001c0-.552.4475757-1 .999053-1h3.9962121c.5514773 0 .9990531.448.9990531 1v4.7670423c-1.3217694 1.0645005-2.297961 2.5407578-2.7337605 4.2339577zm3.7328135-4.9209556v-10.0790444c0-.552.4475757-1 .999053-1h3.9962121c.5514773 0 .9990531.448.9990531 1v9.2467029c-.632962-.1610868-1.296066-.2467029-1.9791667-.2467029-1.4634072 0-2.8350404.3929309-4.0151515 1.0790444zm10.005786 7.9209556h-1.1009565c-.1298769.637-.3836363 1.228-.7303077 1.752l.7822585.783-1.4116619 1.415-.7832576-.783c-.5235038.347-1.1149432.602-1.75134.732v1.101h-1.998106v-1.101c-.6363968-.13-1.2278362-.384-1.75134-.731l-.7822585.784-1.4136601-1.413.7822586-.785c-.3476705-.525-.60143-1.116-.7313069-1.754h-1.1009564v-2h1.1009564c.1298769-.637.3836364-1.228.7313069-1.753l-.7822586-.782 1.411662-1.415.7832575.783c.5245029-.347 1.1149432-.602 1.75134-.732v-1.101h1.9981061v1.101c.6363967.13 1.2268371.385 1.7503409.732l.7842566-.785 1.4116619 1.415-.7832575.783c.3486695.525.6024289 1.117.7323058 1.754h1.1009565zm-5.9963163 1c-1.1049527 0-1.9981061-.897-1.9981061-2 0-1.105.8931534-2 1.9981061-2 1.1029545 0 1.998106.895 1.998106 2 0 1.103-.8951515 2-1.998106 2z" fill-rule="evenodd"/></svg>

<?xml version="1.0" encoding="UTF-8"?>
<svg width="40px" height="40px" viewBox="0 0 40 40" version="1.1" xmlns="http://www.w3.org/2000/svg" xmlns:xlink="http://www.w3.org/1999/xlink">
    <!-- Generator: Sketch 50.2 (55047) - http://www.bohemiancoding.com/sketch -->
    <title>Icons/graph-settings</title>
    <desc>Created with Sketch.</desc>
    <defs>
        <path d="M10.9962121,13.999 L12.9943182,13.999 L12.9943182,21.999 L10.9962121,21.999 L10.9962121,13.999 Z M17.9895833,15.999 L19.9876894,15.999 L19.9876894,21.999 L17.9895833,21.999 L17.9895833,15.999 Z M26.9810606,18.0000219 C26.2910099,18.001621 25.6214828,18.0905861 24.9829545,18.2564423 L24.9829545,10 L26.9810606,10 L26.9810606,18.0000219 Z M19.252035,24 L7,24 L7,22 L8.99810606,22 L8.99810606,12.999 C8.99810606,12.447 9.44568182,11.999 9.99715909,11.999 L13.9933712,11.999 C14.5448485,11.999 14.9924242,12.447 14.9924242,12.999 L14.9924242,22 L15.9914773,22 L15.9914773,14.999 C15.9914773,14.447 16.439053,13.999 16.9905303,13.999 L20.9867424,13.999 C21.5382197,13.999 21.9857955,14.447 21.9857955,14.999 L21.9857955,19.7660423 C20.6640261,20.8305428 19.6878345,22.3068001 19.252035,24 Z M22.9848485,19.0790444 L22.9848485,9 C22.9848485,8.448 23.4324242,8 23.9839015,8 L27.9801136,8 C28.5315909,8 28.9791667,8.448 28.9791667,9 L28.9791667,18.2467029 C28.3462047,18.0856161 27.6831007,18 27,18 C25.5365928,18 24.1649596,18.3929309 22.9848485,19.0790444 Z M32.9906345,27 L31.889678,27 C31.7598011,27.637 31.5060417,28.228 31.1593703,28.752 L31.9416288,29.535 L30.5299669,30.95 L29.7467093,30.167 C29.2232055,30.514 28.6317661,30.769 27.9953693,30.899 L27.9953693,32 L25.9972633,32 L25.9972633,30.899 C25.3608665,30.769 24.7694271,30.515 24.2459233,30.168 L23.4636648,30.952 L22.0500047,29.539 L22.8322633,28.754 C22.4845928,28.229 22.2308333,27.638 22.1009564,27 L21,27 L21,25 L22.1009564,25 C22.2308333,24.363 22.4845928,23.772 22.8322633,23.247 L22.0500047,22.465 L23.4616667,21.05 L24.2449242,21.833 C24.7694271,21.486 25.3598674,21.231 25.9962642,21.101 L25.9962642,20 L27.9943703,20 L27.9943703,21.101 C28.630767,21.231 29.2212074,21.486 29.7447112,21.833 L30.5289678,21.048 L31.9406297,22.463 L31.1573722,23.246 C31.5060417,23.771 31.7598011,24.363 31.889678,25 L32.9906345,25 L32.9906345,27 Z M26.9943182,28 C25.8893655,28 24.9962121,27.103 24.9962121,26 C24.9962121,24.895 25.8893655,24 26.9943182,24 C28.0972727,24 28.9924242,24.895 28.9924242,26 C28.9924242,27.103 28.0972727,28 26.9943182,28 L26.9943182,28 Z" id="path-1"></path>
    </defs>
    <g id="Icons/graph-settings" stroke="none" stroke-width="1" fill="none" fill-rule="evenodd">
        <mask id="mask-2" fill="white">
            <use xlink:href="#path-1"></use>
        </mask>
        <use id="Mask" fill="#000000" xlink:href="#path-1"></use>
    </g>
</svg>
